icons/src/house.svg

<!--Generator: Apple Native CoreSVG 341-->
<!DOCTYPE svg  PUBLIC '-//W3C//DTD SVG 1.1//EN'  'http://www.w3.org/Graphics/SVG/1.1/DTD/svg11.dtd'>
<svg version="1.1" viewBox="0 0 23.682 20.557" xmlns="http://www.w3.org/2000/svg">
 <rect width="23.682" height="20.557" opacity="0"/>
 <path d="m8.8281 19.531h5.6641v-6.3085c0-0.4493-0.293-0.7422-0.7422-0.7422h-4.1699c-0.44922 0-0.75196 0.2929-0.75196 0.7422zm-7.9883-9.1015c0.27344 0 0.49805-0.1465 0.70313-0.3125l9.7754-8.2129c0.1074-0.08789 0.2343-0.13672 0.3418-0.13672 0.1171 0 0.2343 0.04883 0.3418 0.13672l9.7851 8.2129c0.1953 0.166 0.4199 0.3125 0.6934 0.3125 0.5273 0 0.8398-0.3809 0.8398-0.78126 0-0.22461-0.0879-0.45899-0.3125-0.63477l-10.176-8.5449c-0.3711-0.3125-0.7715-0.46875-1.1718-0.46875-0.4004 0-0.8008 0.15625-1.1719 0.46875l-10.176 8.5449c-0.21484 0.17578-0.3125 0.41016-0.3125 0.63477 0 0.40036 0.3125 0.78126 0.83984 0.78126zm17.178-5.1856 2.4512 2.0703v-4.4043c0-0.42969-0.2735-0.70313-0.7032-0.70313h-1.0449c-0.4199 0-0.7031 0.27344-0.7031 0.70313zm-12.959 15.293h13.213c1.3867 0 2.1973-0.791 2.1973-2.1582v-10.82l-1.5723-1.0644v11.494c0 0.6347-0.3418 0.9765-0.957 0.9765h-12.549c-0.625 0-0.96679-0.3418-0.96679-0.9765v-11.484l-1.5723 1.0547v10.82c0 1.377 0.81055 2.1582 2.207 2.1582z" fill="#fff"/>
</svg>

<?xml version="1.0" encoding="UTF-8"?>
<!--Generator: Apple Native CoreSVG 341-->
<!DOCTYPE svg
PUBLIC "-//W3C//DTD SVG 1.1//EN"
       "http://www.w3.org/Graphics/SVG/1.1/DTD/svg11.dtd">
<svg version="1.1" xmlns="http://www.w3.org/2000/svg" xmlns:xlink="http://www.w3.org/1999/xlink" viewBox="0 0 23.6816 20.5566">
 <g>
  <rect height="20.5566" opacity="0" width="23.6816" x="0" y="0"/>
  <path d="M8.82812 19.5312L14.4922 19.5312L14.4922 13.2227C14.4922 12.7734 14.1992 12.4805 13.75 12.4805L9.58008 12.4805C9.13086 12.4805 8.82812 12.7734 8.82812 13.2227ZM0.839844 10.4297C1.11328 10.4297 1.33789 10.2832 1.54297 10.1172L11.3184 1.9043C11.4258 1.81641 11.5527 1.76758 11.6602 1.76758C11.7773 1.76758 11.8945 1.81641 12.002 1.9043L21.7871 10.1172C21.9824 10.2832 22.207 10.4297 22.4805 10.4297C23.0078 10.4297 23.3203 10.0488 23.3203 9.64844C23.3203 9.42383 23.2324 9.18945 23.0078 9.01367L12.832 0.46875C12.4609 0.15625 12.0605 0 11.6602 0C11.2598 0 10.8594 0.15625 10.4883 0.46875L0.3125 9.01367C0.0976562 9.18945 0 9.42383 0 9.64844C0 10.0488 0.3125 10.4297 0.839844 10.4297ZM18.0176 5.24414L20.4688 7.31445L20.4688 2.91016C20.4688 2.48047 20.1953 2.20703 19.7656 2.20703L18.7207 2.20703C18.3008 2.20703 18.0176 2.48047 18.0176 2.91016ZM5.05859 20.5371L18.2715 20.5371C19.6582 20.5371 20.4688 19.7461 20.4688 18.3789L20.4688 7.55859L18.8965 6.49414L18.8965 17.9883C18.8965 18.623 18.5547 18.9648 17.9395 18.9648L5.39062 18.9648C4.76562 18.9648 4.42383 18.623 4.42383 17.9883L4.42383 6.50391L2.85156 7.55859L2.85156 18.3789C2.85156 19.7559 3.66211 20.5371 5.05859 20.5371Z" fill="white"/>
 </g>
</svg>
